X:327
T:AIR IV. Bob of Dumblain.
B:Joseph Mitchell: "The Highland Fair" (1731)
Z:Jack Campin <http://www.purr.demon.co.uk/jack/jack.html>
M:6/8
L:1/8
K:CMin
G|c2c e2e|gfe d2B|cdc efg|BGG G2||
B|GEE A2F|BGG c2B|GEE AFF|BGG c2
B|GEE AFF|BGG eef|gfe dcB|Gcc c2|]
